X:3
T:Tom Deming's
M:6/8
L:1/8
R:Jig
D:Dervish - At the End of the Day
Z:John Norvell
K:D
|: DFA d2e | dcA ~G3 | AFD =c2d | ed=c B/2c/2dA |!
 DFA dfe | dcA ~G3 | AdB cAG |1 ~E3 DFE :|2 ~E3 DFA |!
|: d2e fed | c2A A2B | =c2d edc | B2G GAG |!
 FAd fed | ceA AFG | AdB cAG |1 EDC DFA :|2 EDC DFE :|3 ~E3 AGE |]
